X:1
T: The Fyket
C:
R:Strathspey
Q: 128
K:D
M:4/4
L:1/16
|:g2|f3A efge aA3 A3g|f3A efgd BG3 G3g|f3A efge f3A efge|f2df e2d=c B2G2 G2g2|
f3A efge aA3 A3g|f3A efgd BG3 G3g|f3A efge f3A efge|f2df e2d=c B2G2 G2e^g|
a3a bage aA3 A2e^g|a3a bage g2G2 G2e^g|a3a bage a3a bage|g2g2 egdg B2G2 G2e^g|
a3a bage aA3 A2e^g|a3a bage g2G2 G2e^g|a3a a3g agab a2ge|degb egdg B2G2 G2:|
